X:1
T:The Banner of the Cross
T:The Banner of the Cross
T:James McGranahan
T:Daniel Webster Whittle, 1884
T:Public Domain Courtesy of the Cyber Hymnal™
T:Public Domain Courtesy of the Cyber Hymnal™
C:James McGranahan
Z:Public Domain
Z:Courtesy of the Cyber Hymnal™
%%score ( 1 2 ) ( 3 4 )
L:1/8
Q:1/4=107
M:4/4
K:Bb
V:1 treble 
V:2 treble 
V:3 bass 
V:4 bass 
V:1
 [B,D]>[CE] | [DF]2 [DF]2 [DF]2 [DB]2 | [B,D]>[CE] [DF]>[EG] [DF]2 [FB]>[FB] | %3
w: 1.~There’s a|roy- al ban- ner|giv- en for dis- play To the|
w: 2.~Though the|foe may rage and|ga- ther as the flood, Let the|
w: 3.~O- ver|land and sea, wher-|ev- er man may dwell, Make the|
w: 4.~When the|glor- y dawns— ’tis|draw- ing ve- ry near, It is|
 [EA]2 [Ec]2 [EG]2 [EA]2 | (z2 (3[DB][DB][DB] [DB]2) [B,D]>[CE] | [DF]2 [DF]2 [DF]2 [DB]2 | %6
w: sol- diers of the|* * * * King; As|an en- sign fair|
w: stand- ard be dis-|* * * * played; And|be- neath its folds,|
w: glor- ious tid- ings|* * * * known; Of|the crim- son ban-|
w: hast- ening day by|* * * * day— Then|be- fore our king|
 [B,D]>[CE] [DF]>[EG] [DF]2 [FB]>[FB] | [FA]2 [FB]2 [=EG]2 [Ec]2 | (z2 (3[CF][CF][CF] [CF]2) || %9
w: we lift it up to- day, While|as ran- somed ones||
w: as sol- diers of the Lord, For|the truth be not||
w: ner now the sto- ry tell, While|the Lord shall claim||
w: the foe shall dis- ap- pear, And|the cross the world||
"^Refrain" F>[FA] | c4 [Ac]2 [Ad]>[Ac] | B2- [DB]2 [FB]2 [DB]2 | [Ee]2 [Ge]2 [Fd]>[Fc] B>d | %13
w: we sing.||||
w: dis- mayed!||||
w: His own!||||
w: shall sway!||||
 c4- c2 F>[EF] | [DB]2 [Fd]2 f4 | [EG]2 [GB]2 e4 | [Fd]2 [Fd]2 [Fd][DB] [Ec]>[Ec] | [DB]6 |] %18
w: |||||
w: |||||
w: |||||
w: |||||
V:2
 x2 | x8 | x8 | x8 | [DB]6 x2 | x8 | x8 | x8 | F6 || F3/2 x/ | A2 F2 x4 | x8 | x6 F2 | %13
 F (GABAG) x2 | x4 F2 F2 | x4 (G2 G2) | x8 | x6 |] %18
V:3
 [B,,F,]>[D,F,] | [B,,B,]2 [B,,B,]2 [B,,B,]2 [B,,F,]2 | %2
w: ~ ~|~ ~ ~ ~|
 [B,,F,]>[B,,F,] [B,,B,]>[B,,B,] [B,,B,]2 [B,,D]>[B,,D] | [F,C]2 [F,A,]2 [F,C]2 F,2 | %4
w: ~ ~ ~ ~ ~ ~ ~|~ ~ ~ ~|
 (z2 (3[B,,F,][B,,F,][B,,F,] [B,,F,]2) [B,,F,]>[B,,F,] | [B,,F,]2 [B,,B,]2 [B,,B,]2 [B,,F,]2 | %6
w: * * * * ~ ~|~ ~ ~ ~|
 [B,,F,]>[B,,F,] [B,,B,]>[B,,B,] [B,,B,]2 [B,,D]>[B,,D] | [C,C]2 [C,A,]2 [C,C]2 [C,B,]2 | %8
w: ~ ~ ~ ~ ~ ~ ~|~ ~ ~ ~|
 (z2 (3[F,A,][F,A,][F,A,] [F,A,]2) || [F,A,]>[F,C] | ([F,E]2 [A,E]2 [CE]2) [F,F]>[F,E] | %11
w: |~ ~|March- * * ing on,|
 ([B,,D]2 [F,B,]2 [B,D]2) [_A,B,]2 | [G,B,]2 [E,B,]2 [B,,B,]>[C,A,] [D,B,]2 | %13
w: march- * * ing|on, For Christ count ev-|
 [F,A,]([=E,B,][F,A,]G,) C2 [D,A,]>[C,A,] | [B,,B,]2 [B,,B,]2 [B,,D]2 [D,B,]2 | %15
w: ery- thing * * but loss! And|to crown Him king,|
 [E,B,]2 [E,B,]2 ([E,B,]2 [C,C]2) | [F,B,]2 [F,B,]2 [F,B,][F,B,] [F,A,]>[F,A,] | [B,,F,B,]6 |] %18
w: we’ll toil and *|sing, ’Neath the ban- ner of|the|
V:4
 x2 | x8 | x8 | x6 F,2 | [B,,F,]6 x2 | x8 | x8 | x8 | [F,A,]6 || x2 | x8 | x8 | x8 | %13
 x3 (G, F,_E,) x2 | x8 | x8 | x8 | x6 |] %18

